Carto/POI/SVG/connector-underpath_solid_24px.svg

<svg xmlns="http://www.w3.org/2000/svg" width="24" height="24" viewBox="0 0 24 24"><rect width="24" height="24" style="fill:none"/><path d="M4.07,22H2L2,10.4C2,5.18,6.49,2,12,2s10,3.18,10,8.4L22,22H19.93L19,21.18V10.58c0-3.72-3.52-5.39-7-5.39S5,6.86,5,10.58v10.6ZM12,9c-2.21,0-4,1.35-4,3.56v6l2-1.77v-4.2C10,11.07,11.67,11,12,11s2,.07,2,1.56v4.2l2,1.77v-6C16,10.35,14.21,9,12,9Z"/></svg>

<svg width="24" height="24" viewBox="0 0 24 24" fill="none" xmlns="http://www.w3.org/2000/svg">
<path d="M4.07 22H2V10.4C2 5.18 6.49 2 12 2C17.51 2 22 5.18 22 10.4V22H19.93L19 21.18V10.58C19 6.86 15.48 5.19 12 5.19C8.52 5.19 5 6.86 5 10.58V21.18L4.07 22ZM12 9C9.79 9 8 10.35 8 12.56V18.56L10 16.79V12.59C10 11.07 11.67 11 12 11C12.33 11 14 11.07 14 12.56V16.76L16 18.53V12.53C16 10.35 14.21 9 12 9Z" fill="#0F1621"/>
</svg>
